Origami/22x22/apps/armagetronad.svg

<svg width="22" height="22" version="1.1" viewBox="0 0 22 22" xmlns="http://www.w3.org/2000/svg">
 <path d="M 11,1 A 10,10 0 0 0 1,11 10,10 0 0 0 11,21 10,10 0 0 0 21,11 10,10 0 0 0 11,1 Z" style="fill:#e3ac33"/>
 <path d="M 1.01075,11.209 A 10,10 0 0 0 1,11.5 10,10 0 0 0 11,21.5 10,10 0 0 0 21,11.5 10,10 0 0 0 20.9895,11.291 10,10 0 0 1 11,21 10,10 0 0 1 1.011,11.209 Z" style="opacity:.2"/>
 <path d="m11 1a10 10 0 0 0 -10 10 10 10 0 0 0 0.01075 0.209 10 10 0 0 1 9.989 -9.709 10 10 0 0 1 9.9895 9.791 10 10 0 0 0 0.0105 -0.291 10 10 0 0 0 -10 -10z" style="fill:#ffffff;opacity:.2"/>
 <path d="m11.179688 4.008789c-0.067353 0.200681-0.130123 0.376819-0.204102 0.621094-0.245176 0.8095575-0.478286 1.8045785-0.475586 2.368164 0.0026 0.5382285 0.236147 1.4938095 0.479492 2.2705075 0.06238 0.1990785 0.09466 0.2763535 0.147461 0.431641 0.07185-0.1453135 0.104225-0.2243835 0.197266-0.402344 0.395168-0.7558395 0.889665-1.6275255 1.442383-2.185547 0.57055-0.5760475 1.468855-1.098161 2.249023-1.515625 0.09932-0.053147 0.163573-0.081132 0.257813-0.1298825a7 7 0 0 0 -4.09375 -1.458008zm-1.071289 0.05664a7 7 0 0 0 -3.925782 1.860352c0.093551 0.1873395 0.173473 0.353236 0.292969 0.576172 0.398049 0.742616 0.933386 1.610373 1.34375 2.024414 0.4073215 0.410967 1.305724 0.9783485 2.078125 1.4033205 0.118148 0.0650045 0.199455 0.1035595 0.306641 0.1601565-0.061498-0.1788225-0.104715-0.2863165-0.178711-0.522461-0.255033-0.8138855-0.521641-1.780019-0.525391-2.56543-0.0039-0.810767 0.2620835-1.815256 0.518555-2.662109 0.03266-0.107847 0.05766-0.1732745 0.08984-0.2744145zm5.964843 2.116211c-0.190219 0.094606-0.359697 0.175816-0.585937 0.2968755-0.745809 0.3990775-1.614136 0.9374665-2.010742 1.3378905-0.37876 0.3824105-0.889465 1.223056-1.266602 1.944336-0.09635 0.184282-0.12789 0.261418-0.200195 0.408204 0.148732-0.05014 0.248985-0.08907 0.422851-0.143555 0.813886-0.255033 1.780019-0.521641 2.56543-0.525391 0.810767-0.0039 1.815255 0.2620835 2.662109 0.518555 0.107847 0.03266 0.173275 0.05766 0.274414 0.08984a7 7 0 0 0 -1.861328 -3.926755zm-10.606445 0.5449225a7 7 0 0 0 -1.458008 4.0927735c0.1978995 0.06603 0.370467 0.126461 0.611328 0.199219 0.806572 0.243645 1.7988935 0.478845 2.381836 0.481445 0.578617 0.0026 1.6152435-0.231869 2.461914-0.477539 0.0905-0.02626 0.146691-0.04683 0.230469-0.07226-0.0985935-0.052216-0.1704555-0.085728-0.277344-0.144537-0.804533-0.442651-1.7295545-0.9919715-2.307617-1.575195-0.5750125-0.580157-1.100335-1.4792575-1.5166015-2.2558595-0.051408-0.095909-0.078734-0.1569555-0.1259765-0.248047zm9.535156 3.7734375c-0.538228 0.0026-1.493809 0.236147-2.270507 0.479492-0.181923 0.05701-0.280519 0.09561-0.430665 0.146485 0.140911 0.06985 0.23951 0.113619 0.401367 0.198242 0.75584 0.395169 1.627526 0.889665 2.185547 1.442383 0.576048 0.57055 1.098161 1.468855 1.515625 2.249023 0.05315 0.09932 0.08113 0.163573 0.129883 0.257813a7 7 0 0 0 1.458008 -4.09375c-0.200681-0.067353-0.376819-0.130123-0.621094-0.204102-0.809558-0.245176-1.804579-0.478286-2.368164-0.475586zm-4.959961 1.388672c-0.106764 0.03284-0.181504 0.059708-0.298828 0.09375-0.8818925 0.255889-1.9239635 0.521228-2.745117 0.517578-0.816828-0.00365-1.8244835-0.268641-2.667969-0.523437-0.1043075-0.031511-0.1667115-0.055883-0.2646485-0.086914a7 7 0 0 0 1.8603515 3.927734c0.1873395-0.09355 0.353236-0.173473 0.576172-0.292969 0.742616-0.398049 1.6103725-0.933386 2.024414-1.34375 0.4109665-0.407321 0.9783485-1.305724 1.4033205-2.078125 0.045395-0.08251 0.07201-0.138183 0.1123045-0.213867zm1.875977 0.163086c0.02255 0.0743 0.04109 0.124548 0.06445 0.205078 0.255889 0.881892 0.521228 1.923963 0.517578 2.745117-0.0037 0.816828-0.268641 1.824483-0.523437 2.667969-0.03151 0.104307-0.05588 0.166712-0.08691 0.264648a7 7 0 0 0 3.928711 -1.861328c-0.09461-0.190219-0.175816-0.359697-0.296875-0.585937-0.399078-0.745809-0.937467-1.614136-1.337891-2.010742-0.382411-0.37876-1.223056-0.889465-1.944336-1.266602-0.132906-0.06949-0.204869-0.100033-0.321289-0.158203zm-0.967773 0.253906c-0.05099 0.0966-0.08573 0.170474-0.144532 0.277344-0.442651 0.804533-0.9919715 1.729555-1.575195 2.307617-0.580157 0.575013-1.4792575 1.100335-2.2558595 1.516601-0.095909 0.05141-0.1569555 0.07873-0.248047 0.125977a7 7 0 0 0 4.0927735 1.458008c0.06603-0.197899 0.126461-0.370467 0.199219-0.611328 0.243645-0.806572 0.478845-1.798893 0.481445-2.381836 0.0026-0.578617-0.231869-1.615243-0.477539-2.461914-0.02626-0.0905-0.04722-0.14841-0.07226-0.230469z" style="fill:#383838"/>
 <circle cx="11" cy="11.5" r="2.5" style="opacity:.2"/>
 <circle cx="11" cy="11" r="2.5" style="fill:#cccccc"/>
</svg>

<svg xmlns="http://www.w3.org/2000/svg" width="22" height="22" version="1.1" viewBox="0 0 22 22">
 <path style="fill:#e3ac33" d="M 11,1 A 10,10 0 0 0 1,11 10,10 0 0 0 11,21 10,10 0 0 0 21,11 10,10 0 0 0 11,1 Z"/>
 <path style="opacity:0.2" d="M 1.01075,11.209 A 10,10 0 0 0 1,11.5 10,10 0 0 0 11,21.5 10,10 0 0 0 21,11.5 10,10 0 0 0 20.9895,11.291 10,10 0 0 1 11,21 10,10 0 0 1 1.011,11.209 Z"/>
 <path style="opacity:0.2;fill:#ffffff" d="m 11,1 a 10,10 0 0 0 -10,10 10,10 0 0 0 0.01075,0.209 10,10 0 0 1 9.989,-9.709 10,10 0 0 1 9.9895,9.791 10,10 0 0 0 0.0105,-0.291 10,10 0 0 0 -10,-10 z"/>
 <path style="fill:#383838" d="M 11.179688,4.008789 C 11.112335,4.20947 11.049565,4.385608 10.975586,4.629883 10.73041,5.4394405 10.4973,6.4344615 10.5,6.998047 c 0.0026,0.5382285 0.236147,1.4938095 0.479492,2.2705075 0.06238,0.1990785 0.09466,0.2763535 0.147461,0.431641 0.07185,-0.1453135 0.104225,-0.2243835 0.197266,-0.402344 0.395168,-0.7558395 0.889665,-1.6275255 1.442383,-2.185547 0.57055,-0.5760475 1.468855,-1.098161 2.249023,-1.515625 0.09932,-0.053147 0.163573,-0.081132 0.257813,-0.1298825 a 7,7 0 0 0 -4.09375,-1.458008 z m -1.071289,0.05664 A 7,7 0 0 0 6.182617,5.925781 C 6.276168,6.1131205 6.35609,6.279017 6.475586,6.501953 6.873635,7.244569 7.408972,8.112326 7.819336,8.526367 8.2266575,8.937334 9.12506,9.5047155 9.897461,9.9296875 10.015609,9.994692 10.096916,10.033247 10.204102,10.089844 10.142604,9.9110215 10.099387,9.8035275 10.025391,9.567383 9.770358,8.7534975 9.50375,7.787364 9.5,7.001953 9.4961,6.191186 9.7620835,5.186697 10.018555,4.339844 c 0.03266,-0.107847 0.05766,-0.1732745 0.08984,-0.2744145 z M 16.073242,6.18164 C 15.883023,6.276246 15.713545,6.357456 15.487305,6.4785155 14.741496,6.877593 13.873169,7.415982 13.476563,7.816406 c -0.37876,0.3824105 -0.889465,1.223056 -1.266602,1.944336 -0.09635,0.184282 -0.12789,0.261418 -0.200195,0.408204 0.148732,-0.05014 0.248985,-0.08907 0.422851,-0.143555 C 13.246503,9.770358 14.212636,9.50375 14.998047,9.5 c 0.810767,-0.0039 1.815255,0.2620835 2.662109,0.518555 0.107847,0.03266 0.173275,0.05766 0.274414,0.08984 A 7,7 0 0 0 16.073242,6.18164 Z M 5.466797,6.7265625 A 7,7 0 0 0 4.008789,10.819336 c 0.1978995,0.06603 0.370467,0.126461 0.611328,0.199219 C 5.426689,11.2622 6.4190105,11.4974 7.001953,11.5 c 0.578617,0.0026 1.6152435,-0.231869 2.461914,-0.477539 0.0905,-0.02626 0.146691,-0.04683 0.230469,-0.07226 C 9.5957425,10.897985 9.5238805,10.864473 9.416992,10.805664 8.612459,10.363013 7.6874375,9.8136925 7.109375,9.230469 6.5343625,8.650312 6.00904,7.7512115 5.5927735,6.9746095 5.5413655,6.8787005 5.5140395,6.817654 5.466797,6.7265625 Z M 15.001953,10.5 c -0.538228,0.0026 -1.493809,0.236147 -2.270507,0.479492 -0.181923,0.05701 -0.280519,0.09561 -0.430665,0.146485 0.140911,0.06985 0.23951,0.113619 0.401367,0.198242 0.75584,0.395169 1.627526,0.889665 2.185547,1.442383 0.576048,0.57055 1.098161,1.468855 1.515625,2.249023 0.05315,0.09932 0.08113,0.163573 0.129883,0.257813 a 7,7 0 0 0 1.458008,-4.09375 C 17.79053,11.112335 17.614392,11.049565 17.370117,10.975586 16.560559,10.73041 15.565538,10.4973 15.001953,10.5 Z m -4.959961,1.388672 C 9.935228,11.921512 9.860488,11.94838 9.743164,11.982422 8.8612715,12.238311 7.8192005,12.50365 6.998047,12.5 6.181219,12.49635 5.1735635,12.231359 4.330078,11.976563 4.2257705,11.945052 4.1633665,11.92068 4.0654295,11.889649 a 7,7 0 0 0 1.8603515,3.927734 c 0.1873395,-0.09355 0.353236,-0.173473 0.576172,-0.292969 0.742616,-0.398049 1.6103725,-0.933386 2.024414,-1.34375 0.4109665,-0.407321 0.9783485,-1.305724 1.4033205,-2.078125 0.045395,-0.08251 0.07201,-0.138183 0.1123045,-0.213867 z m 1.875977,0.163086 c 0.02255,0.0743 0.04109,0.124548 0.06445,0.205078 0.255889,0.881892 0.521228,1.923963 0.517578,2.745117 -0.0037,0.816828 -0.268641,1.824483 -0.523437,2.667969 -0.03151,0.104307 -0.05588,0.166712 -0.08691,0.264648 a 7,7 0 0 0 3.928711,-1.861328 c -0.09461,-0.190219 -0.175816,-0.359697 -0.296875,-0.585937 -0.399078,-0.745809 -0.937467,-1.614136 -1.337891,-2.010742 -0.382411,-0.37876 -1.223056,-0.889465 -1.944336,-1.266602 -0.132906,-0.06949 -0.204869,-0.100033 -0.321289,-0.158203 z m -0.967773,0.253906 c -0.05099,0.0966 -0.08573,0.170474 -0.144532,0.277344 -0.442651,0.804533 -0.9919715,1.729555 -1.575195,2.307617 -0.580157,0.575013 -1.4792575,1.100335 -2.2558595,1.516601 -0.095909,0.05141 -0.1569555,0.07873 -0.248047,0.125977 a 7,7 0 0 0 4.0927735,1.458008 c 0.06603,-0.197899 0.126461,-0.370467 0.199219,-0.611328 C 11.2622,16.573311 11.4974,15.58099 11.5,14.998047 c 0.0026,-0.578617 -0.231869,-1.615243 -0.477539,-2.461914 -0.02626,-0.0905 -0.04722,-0.14841 -0.07226,-0.230469 z"/>
 <circle style="opacity:0.2" cx="11" cy="11.5" r="2.5"/>
 <circle style="fill:#cccccc" cx="11" cy="11" r="2.5"/>
</svg>
